X: 30874
T: Out On The Ocean
R: jig
M: 6/8
K: Gmajor
|:D2B BAG|BdB A2B|GED G2A|B2B AGE|
D2B BAG|BdB A2B|GED G2A|1 BGE G2E|2 BGE GBd:|
|:e2e edB|eee edB|d2B def|gfe dBA|
G2A B2d|ege d2B|AGE G2A|1 BGF GBd|2 BGF G3:|

